icons/pear.svg

<?xml version="1.0" standalone="no"?><!-- Generator: Gravit.io --><svg xmlns="http://www.w3.org/2000/svg" xmlns:xlink="http://www.w3.org/1999/xlink" width="96" height="96"><path d=" M 47.6999688208694 86.21511735515884 C 47.899968820869404 86.21511735515884 48.09996882086941 86.21511735515884 48.299968820869395 86.21511735515884 Q 48.1999688208694 86.21511735515884 47.6999688208694 86.21511735515884 C 42.1999688208694 86.61511735515884 36.59996882086941 85.01511735515885 32.09996882086941 81.81511735515883 C 28.1999688208694 78.31511735515883 25.8999688208694 73.21511735515884 25.9999688208694 68.01511735515885 C 26.4999688208694 64.21511735515884 28.099968820869403 60.615117355158844 30.6999688208694 57.615117355158844 Q 30.799968820869402 57.41511735515885 35.899968820869404 49.615117355158844 L 39.799968820869395 41.31511735515885 C 39.899968820869404 41.215117355158846 39.899968820869404 41.115117355158844 39.899968820869404 41.01511735515884 C 41.299968820869395 37.615117355158844 42.9999688208694 34.215117355158846 44.899968820869404 31.015117355158846 C 45.4999688208694 29.715117355158846 46.59996882086941 28.715117355158846 47.9999688208694 28.315117355158847 C 49.399968820869404 28.715117355158846 50.4999688208694 29.715117355158846 51.09996882086941 31.015117355158846 C 52.9999688208694 34.215117355158846 54.6999688208694 37.615117355158844 56.09996882086941 41.01511735515884 C 56.09996882086941 41.115117355158844 56.09996882086941 41.215117355158846 56.1999688208694 41.31511735515885 L 60.09996882086941 49.615117355158844 Q 65.1999688208694 57.41511735515885 65.2999688208694 57.615117355158844 C 67.8999688208694 60.615117355158844 69.4999688208694 64.21511735515884 69.9999688208694 68.21511735515884 C 69.9999688208694 73.41511735515886 67.7999688208694 78.31511735515883 63.899968820869404 81.81511735515883 C 59.399968820869404 85.01511735515885 53.799968820869395 86.61511735515884 48.299968820869395 86.21511735515884 M 47.9999688208694 94.21511735515884 C 40.4999688208694 94.71511735515884 33.09996882086941 92.51511735515885 27.099968820869403 88.01511735515885 C 21.299968820869402 83.01511735515885 17.8999688208694 75.61511735515884 17.9999688208694 67.91511735515886 C 18.599968820869403 62.115117355158844 20.799968820869402 56.81511735515885 24.4999688208694 52.51511735515884 L 28.8999688208694 45.715117355158846 L 32.4999688208694 38.01511735515884 C 33.9999688208694 34.31511735515885 35.799968820869395 30.615117355158844 37.899968820869404 27.215117355158846 C 39.799968820869395 23.315117355158847 43.59996882086941 20.715117355158846 47.9999688208694 20.215117355158846 C 52.399968820869404 20.715117355158846 56.1999688208694 23.315117355158847 58.09996882086941 27.215117355158846 C 60.1999688208694 30.615117355158844 61.9999688208694 34.31511735515885 63.4999688208694 38.01511735515884 L 67.09996882086939 45.715117355158846 L 71.4999688208694 52.51511735515884 C 75.1999688208694 56.81511735515885 77.3999688208694 62.115117355158844 77.9999688208694 67.71511735515884 C 78.09996882086939 75.51511735515885 74.7999688208694 82.91511735515886 68.8999688208694 88.01511735515885 C 62.899968820869404 92.51511735515885 55.4999688208694 94.71511735515884 47.9999688208694 94.21511735515884 Z  M 50.799968820869395 16.515117355158846 C 50.09996882086941 17.315117355158847 49.09996882086941 17.715117355158846 47.9999688208694 17.715117355158846 C 46.899968820869404 17.715117355158846 45.899968820869404 17.315117355158847 45.1999688208694 16.515117355158846 C 44.399968820869404 15.815117355158845 43.9999688208694 14.815117355158845 43.9999688208694 13.715117355158846 C 43.9999688208694 12.615117355158846 44.399968820869404 11.615117355158846 45.1999688208694 10.915117355158845 L 53.1999688208694 2.915117355158846 C 53.899968820869404 2.1151173551588456 54.899968820869404 1.7151173551588457 55.9999688208694 1.7151173551588457 C 57.09996882086941 1.7151173551588457 58.09996882086941 2.1151173551588456 58.799968820869395 2.915117355158846 C 59.59996882086941 3.6151173551588456 59.9999688208694 4.615117355158846 59.9999688208694 5.715117355158846 C 59.9999688208694 6.815117355158845 59.59996882086941 7.815117355158845 58.799968820869395 8.515117355158846 L 50.799968820869395 16.515117355158846 Z " fill-rule="evenodd" fill="#454545" stroke="none"/><mask id="_mask_no4D2OrAwsdvsloVmnsJB35w6Zxn2UAg"><path d=" M 47.6999688208694 86.21511735515884 C 47.899968820869404 86.21511735515884 48.09996882086941 86.21511735515884 48.299968820869395 86.21511735515884 Q 48.1999688208694 86.21511735515884 47.6999688208694 86.21511735515884 C 42.1999688208694 86.61511735515884 36.59996882086941 85.01511735515885 32.09996882086941 81.81511735515883 C 28.1999688208694 78.31511735515883 25.8999688208694 73.21511735515884 25.9999688208694 68.01511735515885 C 26.4999688208694 64.21511735515884 28.099968820869403 60.615117355158844 30.6999688208694 57.615117355158844 Q 30.799968820869402 57.41511735515885 35.899968820869404 49.615117355158844 L 39.799968820869395 41.31511735515885 C 39.899968820869404 41.215117355158846 39.899968820869404 41.115117355158844 39.899968820869404 41.01511735515884 C 41.299968820869395 37.615117355158844 42.9999688208694 34.215117355158846 44.899968820869404 31.015117355158846 C 45.4999688208694 29.715117355158846 46.59996882086941 28.715117355158846 47.9999688208694 28.315117355158847 C 49.399968820869404 28.715117355158846 50.4999688208694 29.715117355158846 51.09996882086941 31.015117355158846 C 52.9999688208694 34.215117355158846 54.6999688208694 37.615117355158844 56.09996882086941 41.01511735515884 C 56.09996882086941 41.115117355158844 56.09996882086941 41.215117355158846 56.1999688208694 41.31511735515885 L 60.09996882086941 49.615117355158844 Q 65.1999688208694 57.41511735515885 65.2999688208694 57.615117355158844 C 67.8999688208694 60.615117355158844 69.4999688208694 64.21511735515884 69.9999688208694 68.21511735515884 C 69.9999688208694 73.41511735515886 67.7999688208694 78.31511735515883 63.899968820869404 81.81511735515883 C 59.399968820869404 85.01511735515885 53.799968820869395 86.61511735515884 48.299968820869395 86.21511735515884 M 47.9999688208694 94.21511735515884 C 40.4999688208694 94.71511735515884 33.09996882086941 92.51511735515885 27.099968820869403 88.01511735515885 C 21.299968820869402 83.01511735515885 17.8999688208694 75.61511735515884 17.9999688208694 67.91511735515886 C 18.599968820869403 62.115117355158844 20.799968820869402 56.81511735515885 24.4999688208694 52.51511735515884 L 28.8999688208694 45.715117355158846 L 32.4999688208694 38.01511735515884 C 33.9999688208694 34.31511735515885 35.799968820869395 30.615117355158844 37.899968820869404 27.215117355158846 C 39.799968820869395 23.315117355158847 43.59996882086941 20.715117355158846 47.9999688208694 20.215117355158846 C 52.399968820869404 20.715117355158846 56.1999688208694 23.315117355158847 58.09996882086941 27.215117355158846 C 60.1999688208694 30.615117355158844 61.9999688208694 34.31511735515885 63.4999688208694 38.01511735515884 L 67.09996882086939 45.715117355158846 L 71.4999688208694 52.51511735515884 C 75.1999688208694 56.81511735515885 77.3999688208694 62.115117355158844 77.9999688208694 67.71511735515884 C 78.09996882086939 75.51511735515885 74.7999688208694 82.91511735515886 68.8999688208694 88.01511735515885 C 62.899968820869404 92.51511735515885 55.4999688208694 94.71511735515884 47.9999688208694 94.21511735515884 Z  M 50.799968820869395 16.515117355158846 C 50.09996882086941 17.315117355158847 49.09996882086941 17.715117355158846 47.9999688208694 17.715117355158846 C 46.899968820869404 17.715117355158846 45.899968820869404 17.315117355158847 45.1999688208694 16.515117355158846 C 44.399968820869404 15.815117355158845 43.9999688208694 14.815117355158845 43.9999688208694 13.715117355158846 C 43.9999688208694 12.615117355158846 44.399968820869404 11.615117355158846 45.1999688208694 10.915117355158845 L 53.1999688208694 2.915117355158846 C 53.899968820869404 2.1151173551588456 54.899968820869404 1.7151173551588457 55.9999688208694 1.7151173551588457 C 57.09996882086941 1.7151173551588457 58.09996882086941 2.1151173551588456 58.799968820869395 2.915117355158846 C 59.59996882086941 3.6151173551588456 59.9999688208694 4.615117355158846 59.9999688208694 5.715117355158846 C 59.9999688208694 6.815117355158845 59.59996882086941 7.815117355158845 58.799968820869395 8.515117355158846 L 50.799968820869395 16.515117355158846 Z " fill-rule="evenodd" fill="white" stroke="none"/></mask><path d=" M 47.6999688208694 86.21511735515884 C 47.899968820869404 86.21511735515884 48.09996882086941 86.21511735515884 48.299968820869395 86.21511735515884 Q 48.1999688208694 86.21511735515884 47.6999688208694 86.21511735515884 C 42.1999688208694 86.61511735515884 36.59996882086941 85.01511735515885 32.09996882086941 81.81511735515883 C 28.1999688208694 78.31511735515883 25.8999688208694 73.21511735515884 25.9999688208694 68.01511735515885 C 26.4999688208694 64.21511735515884 28.099968820869403 60.615117355158844 30.6999688208694 57.615117355158844 Q 30.799968820869402 57.41511735515885 35.899968820869404 49.615117355158844 L 39.799968820869395 41.31511735515885 C 39.899968820869404 41.215117355158846 39.899968820869404 41.115117355158844 39.899968820869404 41.01511735515884 C 41.299968820869395 37.615117355158844 42.9999688208694 34.215117355158846 44.899968820869404 31.015117355158846 C 45.4999688208694 29.715117355158846 46.59996882086941 28.715117355158846 47.9999688208694 28.315117355158847 C 49.399968820869404 28.715117355158846 50.4999688208694 29.715117355158846 51.09996882086941 31.015117355158846 C 52.9999688208694 34.215117355158846 54.6999688208694 37.615117355158844 56.09996882086941 41.01511735515884 C 56.09996882086941 41.115117355158844 56.09996882086941 41.215117355158846 56.1999688208694 41.31511735515885 L 60.09996882086941 49.615117355158844 Q 65.1999688208694 57.41511735515885 65.2999688208694 57.615117355158844 C 67.8999688208694 60.615117355158844 69.4999688208694 64.21511735515884 69.9999688208694 68.21511735515884 C 69.9999688208694 73.41511735515886 67.7999688208694 78.31511735515883 63.899968820869404 81.81511735515883 C 59.399968820869404 85.01511735515885 53.799968820869395 86.61511735515884 48.299968820869395 86.21511735515884 M 47.9999688208694 94.21511735515884 C 40.4999688208694 94.71511735515884 33.09996882086941 92.51511735515885 27.099968820869403 88.01511735515885 C 21.299968820869402 83.01511735515885 17.8999688208694 75.61511735515884 17.9999688208694 67.91511735515886 C 18.599968820869403 62.115117355158844 20.799968820869402 56.81511735515885 24.4999688208694 52.51511735515884 L 28.8999688208694 45.715117355158846 L 32.4999688208694 38.01511735515884 C 33.9999688208694 34.31511735515885 35.799968820869395 30.615117355158844 37.899968820869404 27.215117355158846 C 39.799968820869395 23.315117355158847 43.59996882086941 20.715117355158846 47.9999688208694 20.215117355158846 C 52.399968820869404 20.715117355158846 56.1999688208694 23.315117355158847 58.09996882086941 27.215117355158846 C 60.1999688208694 30.615117355158844 61.9999688208694 34.31511735515885 63.4999688208694 38.01511735515884 L 67.09996882086939 45.715117355158846 L 71.4999688208694 52.51511735515884 C 75.1999688208694 56.81511735515885 77.3999688208694 62.115117355158844 77.9999688208694 67.71511735515884 C 78.09996882086939 75.51511735515885 74.7999688208694 82.91511735515886 68.8999688208694 88.01511735515885 C 62.899968820869404 92.51511735515885 55.4999688208694 94.71511735515884 47.9999688208694 94.21511735515884 Z  M 50.799968820869395 16.515117355158846 C 50.09996882086941 17.315117355158847 49.09996882086941 17.715117355158846 47.9999688208694 17.715117355158846 C 46.899968820869404 17.715117355158846 45.899968820869404 17.315117355158847 45.1999688208694 16.515117355158846 C 44.399968820869404 15.815117355158845 43.9999688208694 14.815117355158845 43.9999688208694 13.715117355158846 C 43.9999688208694 12.615117355158846 44.399968820869404 11.615117355158846 45.1999688208694 10.915117355158845 L 53.1999688208694 2.915117355158846 C 53.899968820869404 2.1151173551588456 54.899968820869404 1.7151173551588457 55.9999688208694 1.7151173551588457 C 57.09996882086941 1.7151173551588457 58.09996882086941 2.1151173551588456 58.799968820869395 2.915117355158846 C 59.59996882086941 3.6151173551588456 59.9999688208694 4.615117355158846 59.9999688208694 5.715117355158846 C 59.9999688208694 6.815117355158845 59.59996882086941 7.815117355158845 58.799968820869395 8.515117355158846 L 50.799968820869395 16.515117355158846 Z " fill-rule="evenodd" fill="none" stroke="none" stroke-width="16" mask="url(#_mask_no4D2OrAwsdvsloVmnsJB35w6Zxn2UAg)"/></svg>

<svg xmlns="http://www.w3.org/2000/svg" width="96" height="96"><path d="M47.7 86.215h.6-.6c-5.5.4-11.1-1.2-15.6-4.4-3.9-3.5-6.2-8.6-6.1-13.8.5-3.8 2.1-7.4 4.7-10.4q.1-.2 5.2-8l3.9-8.3c.1-.1.1-.2.1-.3 1.4-3.4 3.1-6.8 5-10 .6-1.3 1.7-2.3 3.1-2.7 1.4.4 2.5 1.4 3.1 2.7 1.9 3.2 3.6 6.6 5 10 0 .1 0 .2.1.3l3.9 8.3q5.1 7.8 5.2 8c2.6 3 4.2 6.6 4.7 10.6 0 5.2-2.2 10.1-6.1 13.6-4.5 3.2-10.1 4.8-15.6 4.4m-.3 8c-7.5.5-14.9-1.7-20.9-6.2-5.8-5-9.2-12.4-9.1-20.1.6-5.8 2.8-11.1 6.5-15.4l4.4-6.8 3.6-7.7c1.5-3.7 3.3-7.4 5.4-10.8 1.9-3.9 5.7-6.5 10.1-7 4.4.5 8.2 3.1 10.1 7 2.1 3.4 3.9 7.1 5.4 10.8l3.6 7.7 4.4 6.8c3.7 4.3 5.9 9.6 6.5 15.2.1 7.8-3.2 15.2-9.1 20.3-6 4.5-13.4 6.7-20.9 6.2zm2.8-77.7c-.7.8-1.7 1.2-2.8 1.2-1.1 0-2.1-.4-2.8-1.2-.8-.7-1.2-1.7-1.2-2.8 0-1.1.4-2.1 1.2-2.8l8-8c.7-.8 1.7-1.2 2.8-1.2 1.1 0 2.1.4 2.8 1.2.8.7 1.2 1.7 1.2 2.8 0 1.1-.4 2.1-1.2 2.8l-8 8z" fill-rule="evenodd" fill="#454545"/></svg>
